X:1
T: Miss Katty Troters Reel
C:Robert Mackintosh
R:Reel
Q: 232
K:G
M:4/4
L:1/8
|:c|BA BG DG Bd|cB AG FA Ac|BG Bd cA ce|fa df gG Gc|
BA BG DG Bd|cB AG FA Ac|BG Bd cA ce|fa df gG Gg|
f2 df Bg dB|ce Bd Aa ag|f1/2g1/2a df gd BG|ce Ac BG Gg|
f2 df Bg dB|ce Bd Aa ag|fa gb af gc|Bd Ac BG G:|
